X:368
T: "Goliath und David"
N: Z1048
O: Europa, Mitteleuropa, Deutschland, Westfalen
R: Romanze, Ballade, Tod
M: 4/4
L: 1/8
K: G
D2 | G2G2GABc | d2D2D2
d2 | e2d2c2B2 | c2B2A2
B2 | c2B2A2G2 | F2A2D2
B2 | c2B2A2G2 | F2A2D2
D2 | G2A2d2c2 | B2c2d2
c2 | B2c2dedc | B2A2G2

@@@ Tune index: 10126
